media/background-images/facebook-logo.svg

<svg width="7" height="14" viewBox="0 0 7 14" fill="none" xmlns="http://www.w3.org/2000/svg">
<path d="M5.30243 2.82833H6.48669V0.765198C6.28238 0.737084 5.57971 0.673828 4.76138 0.673828C3.0539 0.673828 1.88423 1.7481 1.88423 3.72256V5.5397H0V7.84612H1.88423V13.6495H4.19438V7.84666H6.0024L6.28941 5.54024H4.19384V3.95126C4.19438 3.28464 4.37383 2.82833 5.30243 2.82833Z" fill="white"/>
</svg>

<svg width="7" height="14" fill="none" xmlns="http://www.w3.org/2000/svg"><path d="M5.302 2.828h1.185V.765A15.288 15.288 0 004.76.674c-1.707 0-2.877 1.074-2.877 3.049V5.54H0v2.306h1.884v5.803h2.31V7.848h1.808L6.29 5.54H4.194V3.951c0-.666.18-1.123 1.108-1.123z" fill="#fff"/></svg>
